Sources/FrostedUI/Resources/Icons.xcassets/pinTilted24.imageset/pin-tilted-24.svg

<svg width="24" height="24" viewBox="0 0 24 24" fill="none" xmlns="http://www.w3.org/2000/svg" data-fui-icon="true">
  <path
    d="M12.6914 2.77661C13.8433 1.62491 15.7113 1.62502 16.8633 2.77661L21.1768 7.09009C22.3287 8.24206 22.3286 10.1099 21.1768 11.262L17.4766 14.9631C17.2955 15.1442 17.1582 15.3648 17.0771 15.6077L15.7314 19.6477C15.038 21.7281 12.3974 22.3516 10.8467 20.801L7.5293 17.4846L3.99414 21.0198C3.70126 21.3127 3.22649 21.3126 2.93359 21.0198C2.64089 20.7269 2.64076 20.2521 2.93359 19.9592L6.46875 16.4241L3.15234 13.1077C1.60179 11.557 2.22526 8.91636 4.30566 8.2229L8.3457 6.8772C8.5887 6.7962 8.81009 6.65889 8.99121 6.47778L12.6914 2.77661ZM15.8027 3.83813C15.2365 3.27188 14.3182 3.27187 13.752 3.83813L10.0518 7.53833C9.70606 7.88401 9.28408 8.14345 8.82031 8.2981L4.78027 9.64575C3.75772 9.9866 3.45081 11.2849 4.21289 12.0471L11.9072 19.7405C12.6693 20.5025 13.9666 20.1963 14.3076 19.1741L15.6553 15.1331C15.8099 14.6696 16.0696 14.2482 16.415 13.9026L20.1162 10.2014C20.6823 9.63514 20.6824 8.71683 20.1162 8.15063L15.8027 3.83813Z"
    fill="currentColor"
  />
</svg>

<svg xmlns="http://www.w3.org/2000/svg" width="24" height="24" fill="none" data-fui-icon="true" viewBox="0 0 24 24"><path fill="currentColor" d="M12.691 2.777a2.95 2.95 0 0 1 4.172 0l4.314 4.313a2.95 2.95 0 0 1 0 4.172l-3.7 3.701a1.65 1.65 0 0 0-.4.645l-1.346 4.04c-.693 2.08-3.334 2.704-4.884 1.153l-3.318-3.316-3.535 3.535a.75.75 0 0 1-1.06-1.06l3.535-3.536-3.317-3.316c-1.55-1.551-.927-4.192 1.154-4.885l4.04-1.346c.243-.08.464-.218.645-.4zm3.112 1.061a1.45 1.45 0 0 0-2.051 0l-3.7 3.7a3.15 3.15 0 0 1-1.232.76L4.78 9.646a1.45 1.45 0 0 0-.567 2.401l7.694 7.694a1.45 1.45 0 0 0 2.4-.567l1.348-4.04a3.15 3.15 0 0 1 .76-1.231l3.701-3.702a1.45 1.45 0 0 0 0-2.05z"/></svg>
